X:1
T:Title
%%score { 1 | 2 }
L:1/8
M:6/8
K:Eb
V:1 treble nm="Grand Piano"
V:2 bass 
V:1
 z3 z2[Q:1/4=84] [GB] | [GB][_G=A][=GB] [Ge]>[Bd][_Ac] | [GB][Ac][GB] [EG]2 [EB] | %3
 [DB][DF][DG] [DA][DG][DF] |[M:5/8] G-G- G3 |[M:1/8] B |[M:3/4] B=A B[Ge]- [Ge]/[Bd]/[_Ac] | %7
 [GB][Ac] [GB] [EG]2 [EB] | [DB][DF] [DG][DA] [F,D][A,DF] |[M:5/8] [G,E]-[G,E]- [G,E]3 | %10
[M:1/8] [G,E] |[M:3/4] [DF][DG] [DA][Dc] [DB][DA] | G4- GG | FG =Ae dc | [DB]6 |[M:1/8] [FB] | %16
[M:3/4] B=A B[Ge]- [Ge]/[Bd]/[_Ac] | [GB][Ac] [GB] [EG]2 [EB] | [DB][DF] [DG][DA] [F,D][A,DF] | %19
[M:5/8] [G,E]-[G,E]- [G,E]3 |] %20
V:2
 z3 z2 [E,E] | [E,E][E,E][E,E] [E,B,]>[E,C][E,D] | [E,E][E,E][E,E] [E,B,]2 [E,G,] | %3
 [B,,F,][B,,B,][B,,B,] [B,,B,][B,,B,][B,,B,] |[M:5/8] [E,B,E]-[E,B,E]- [E,B,E]3 |[M:1/8] [E,G,E] | %6
[M:3/4] [E,G,E][E,_G,E] [E,=G,E][E,B,]- [E,B,]/[E,C]/[E,D] | [E,E][E,E] [E,E] [E,B,]2 [E,G,] | %8
 [B,,F,][B,,B,] [B,,B,][B,,B,] B,,B,, |[M:5/8] E,-E,- E,3 |[M:1/8] E, | %11
[M:3/4] [B,,B,][B,,B,] [B,,B,][B,,B,] [B,,B,][B,,B,] | [E,B,E]4- [E,B,E][E,B,E] | %13
 [F,CE][F,CE] [F,CE][F,=A,E] [F,A,E][F,A,E] | [B,,F,B,]6 |[M:1/8] [D,A,] | %16
[M:3/4] [E,G,E][E,_G,E] [E,=G,E][E,B,]- [E,B,]/[E,C]/[E,D] | [E,E][E,E] [E,E] [E,B,]2 [E,G,] | %18
 [B,,F,][B,,B,] [B,,B,][B,,B,] B,,B,, |[M:5/8] E,-E,- E,3 |] %20

